X:1
T:A Border Ballad
M:3/4
L:1/8
Q:80
C:
S:Slow Air
K:HP
[| e | \
{gde}d/2B3/2{G}A3{GAG}A | \
{g}B/2d3/2{g}d3{g}A | \
{Gdc}de{g}f3e |
{gde}d/2B3/2{G}A3{g}A | \
{Gdc}d{g}c{Gdc}d3e | \
{g}f/2g3/2f{g}f/2e3/2{A}e |
{g}fg{ag}a3{f}g | \
{a}f3/2{g}e/2d{g}e/2f-fe | \
{gde}d/2B3/2{G}A3{GAG}A |
{g}B/2d3/2{g}d3|]
